img/dark/trash.svg

<svg height="16" viewBox="0 0 16 16" width="16" xmlns="http://www.w3.org/2000/svg">
  <path
    d="m9 2c1.1045695 0 2 .8954305 2 2h2.5c.2761424 0 .5.22385763.5.5s-.2238576.5-.5.5h-.6l-.7199007 7.1990074c-.1022404 1.0224036-.9625715 1.8009926-1.9900744 1.8009926h-4.38004978c-1.02750289 0-1.88783402-.778589-1.99007438-1.8009926l-.71990074-7.1990074h-.6c-.27614237 0-.5-.22385763-.5-.5s.22385763-.5.5-.5h2.5c0-1.1045695.8954305-2 2-2zm3 3h-8l.89050434 7.1240347c.0625536.5004289.48795461.8759653.99227788.8759653h4.23443558c.5043233 0 .9297243-.3755364.9922779-.8759653zm-5 2c.27614237 0 .5.22385763.5.5v3c0 .2761424-.22385763.5-.5.5s-.5-.2238576-.5-.5v-3c0-.27614237.22385763-.5.5-.5zm2 0c.27614237 0 .5.22385763.5.5v3c0 .2761424-.22385763.5-.5.5s-.5-.2238576-.5-.5v-3c0-.27614237.22385763-.5.5-.5zm0-4h-2c-.55228475 0-1 .44771525-1 1h4l-.00672773-.11662113c-.05776511-.49733868-.48043643-.88337887-.99327227-.88337887z"
    fill="#d6d6d6" fill-rule="evenodd" />
</svg>

<?xml version="1.0" encoding="UTF-8"?>
<svg width="16px" height="16px" viewBox="0 0 16 16" version="1.1" xmlns="http://www.w3.org/2000/svg" xmlns:xlink="http://www.w3.org/1999/xlink">
    <title>trash</title>
    <g id="trash" stroke="none" stroke-width="1" fill="none" fill-rule="evenodd">
        <path d="M9,2 C10.1045695,2 11,2.8954305 11,4 L13.5,4 C13.7761424,4 14,4.22385763 14,4.5 C14,4.77614237 13.7761424,5 13.5,5 L12.9,5 L12.1800993,12.1990074 C12.0778589,13.221411 11.2175278,14 10.1900249,14 L5.80997512,14 C4.78247223,14 3.9221411,13.221411 3.81990074,12.1990074 L3.1,5 L2.5,5 C2.22385763,5 2,4.77614237 2,4.5 C2,4.22385763 2.22385763,4 2.5,4 L5,4 C5,2.8954305 5.8954305,2 7,2 L9,2 Z M12,5 L4,5 L4.89050434,12.1240347 C4.95305794,12.6244636 5.37845895,13 5.88278222,13 L10.1172178,13 C10.6215411,13 11.0469421,12.6244636 11.1094957,12.1240347 L12,5 Z M6.48816611,6.995323 C6.76430848,6.995323 6.98816611,7.21918063 6.98816611,7.495323 L6.98816611,9.495323 C6.98816611,9.77146538 6.76430848,9.995323 6.48816611,9.995323 C6.21202373,9.995323 5.98816611,9.77146538 5.98816611,9.495323 L5.98816611,7.495323 C5.98816611,7.21918063 6.21202373,6.995323 6.48816611,6.995323 Z M9.5,6.98455763 C9.77614237,6.98455763 10,7.20841526 10,7.48455763 L10,9.48455763 C10,9.76070001 9.77614237,9.98455763 9.5,9.98455763 C9.22385763,9.98455763 9,9.76070001 9,9.48455763 L9,7.48455763 C9,7.20841526 9.22385763,6.98455763 9.5,6.98455763 Z M9,3 L7,3 C6.44771525,3 6,3.44771525 6,4 L10,4 L9.99327227,3.88337887 C9.93550716,3.38604019 9.51283584,3 9,3 Z" id="Combined-Shape" fill="#D6D6D6"></path>
    </g>
</svg>
